Origami/48x48/apps/adventure-capitalist.svg

<svg width="48" height="48" version="1.1" xmlns="http://www.w3.org/2000/svg">
 <path d="m18 8.0002725 0.166016 0.00391s-2.74217-0.2015582-5.685547 0.8613282c-1.471689 0.5314394-3.0903653 1.4167433-4.3750002 2.9511683-1.284635 1.534425-2.1054688 3.708594-2.1054688 6.183594s0.8208338 4.649169 2.1054688 6.183594c1.2846349 1.534425 2.9033112 2.419728 4.3750002 2.951172 2.943377 1.062886 5.685547 0.861328 5.685547 0.861328l-0.166016 0.003906h12a3.0003 3.0003 0 0 0 0.166016 -0.0039s1.75783-0.04844 3.314453 0.513672c0.778311 0.281056 1.409635 0.677003 1.8125 1.158203 0.402865 0.481194 0.707031 1.057025 0.707031 2.332025s-0.304166 1.850831-0.707031 2.332031-1.034189 0.877147-1.8125 1.158203c-1.556623 0.562114-3.314453 0.513672-3.314453 0.513672a3.0003 3.0003 0 0 0 -0.166016 -0.003906h-17a3.0003 3.0003 0 1 0 0 6h17l-0.166016-0.0039s2.74217 0.201558 5.685547-0.861328c1.471689-0.531444 3.090365-1.416747 4.375-2.951172 1.284635-1.534431 2.105469-3.7086 2.105469-6.1836s-0.820834-4.649169-2.105469-6.183594-2.903311-2.419728-4.375-2.951172c-2.943377-1.062886-5.685547-0.861328-5.685547-0.861328l0.166016-0.003906h-12a3.0003 3.0003 0 0 0 -0.166016 0.0039s-1.75783 0.04844-3.314453-0.513672c-0.778311-0.281056-1.409635-0.677003-1.8125-1.158203-0.402865-0.481194-0.707031-1.057025-0.707031-2.332025s0.304166-1.850831 0.707031-2.332031 1.034189-0.877147 1.8125-1.158203c1.556623-0.562114 3.314453-0.513672 3.314453-0.513672a3.0003 3.0003 0 0 0 0.166016 0.003906h17a3.0003 3.0003 0 1 0 0 -6.0000005h-17z" style="opacity:.2"/>
 <path d="m23.955078 3.9573037a3.0003 3.0003 0 0 0 -2.955078 3.0429688v34 2a3.0003 3.0003 0 1 0 6 0v-2-34a3.0003 3.0003 0 0 0 -3.044922 -3.0429688z" style="fill-rule:evenodd;opacity:.2"/>
 <path d="m13 38h17s9 0.5 9-7-9-7-9-7h-12s-9 0.5-9-7 9-7 9-7h17" style="fill:none;stroke-linecap:round;stroke-linejoin:round;stroke-width:6;stroke:#ffc73a"/>
 <path d="m17.691406 6.9882812c-0.909206-0.0068654-3.003404 0.0797884-5.210937 0.8769532-1.471689 0.5314394-3.0903654 1.416747-4.3750002 2.9511716-1.2846351 1.534425-2.1054688 3.708594-2.1054688 6.183594 0 0.16922 0.0119711 0.333701 0.0195312 0.5 0.1030146-2.26598 0.8891354-4.25408 2.0859376-5.683594 1.2846348-1.534425 2.9033112-2.4197322 4.3750002-2.9511716 2.686022-0.9699527 5.099661-0.8871716 5.519531-0.8652344h17a3.0003 3.0003 0 0 1 2.998047 2.507812 3.0003 3.0003 0 0 0 -2.998047 -3.507812h-16.953125c-0.062572-0.0036558-0.128479-0.0100047-0.355469-0.0117188zm-5.658203 10.511719c-0.012976 0.16173-0.033203 0.308889-0.033203 0.5 0 1.275 0.304166 1.850837 0.707031 2.332031 0.402865 0.4812 1.034189 0.877147 1.8125 1.158203 1.556623 0.562112 3.314453 0.513672 3.314453 0.513672a3.0003 3.0003 0 0 1 0.166016 -0.003906h11.96875c0.34979-0.019722 2.816349-0.122199 5.550781 0.865234 1.471689 0.531444 3.090365 1.416747 4.375 2.951172 1.196802 1.429514 1.982923 3.417614 2.085938 5.683594 0.00756-0.166299 0.019531-0.33078 0.019531-0.5 0-2.475-0.820834-4.649169-2.105469-6.183594s-2.903311-2.419728-4.375-2.951172c-2.758659-0.996182-5.253205-0.883533-5.566406-0.865234h-11.953125a3.0003 3.0003 0 0 0 -0.166016 0.003906s-1.75783 0.04844-3.314453-0.513672c-0.778311-0.281056-1.409635-0.677003-1.8125-1.158203-0.342479-0.409067-0.600236-0.914777-0.673828-1.832031zm23.933594 14c-0.073592 0.917254-0.331349 1.422959-0.673828 1.832031-0.402865 0.4812-1.034189 0.877147-1.8125 1.158203-1.556623 0.562114-3.314453 0.513672-3.314453 0.513672a3.0003 3.0003 0 0 0 -0.166016 -0.003906h-17a3.0003 3.0003 0 0 0 -2.998047 3.492188 3.0003 3.0003 0 0 1 2.998047 -2.492188h17a3.0003 3.0003 0 0 1 0.166016 0.003906s1.75783 0.048442 3.314453-0.513672c0.778311-0.281056 1.409635-0.677003 1.8125-1.158203s0.707031-1.057031 0.707031-2.332031c0-0.191111-0.020227-0.33827-0.033203-0.5z" style="fill:#ffffff;opacity:.2"/>
 <path d="m24 6v34 2" style="fill:none;stroke-linecap:round;stroke-linejoin:round;stroke-width:6;stroke:#ffc73a"/>
 <path d="M 23.955078 2.9570312 A 3.0003 3.0003 0 0 0 21 6 L 21 7 A 3.0003 3.0003 0 0 1 23.955078 3.9570312 A 3.0003 3.0003 0 0 1 27 7 L 27 6 A 3.0003 3.0003 0 0 0 23.955078 2.9570312 z" style="fill-rule:evenodd;fill:#ffffff;opacity:.2"/>
</svg>

<svg xmlns="http://www.w3.org/2000/svg" width="48" height="48" version="1.1">
 <path style="opacity:0.2" d="m 18,8.0002725 0.166016,0.00391 c 0,0 -2.74217,-0.2015582 -5.685547,0.8613282 C 11.00878,9.3969501 9.3901037,10.282254 8.1054688,11.816679 6.8208338,13.351104 6,15.525273 6,18.000273 c 0,2.475 0.8208338,4.649169 2.1054688,6.183594 1.2846349,1.534425 2.9033112,2.419728 4.3750002,2.951172 2.943377,1.062886 5.685547,0.861328 5.685547,0.861328 L 18,28.000273 l 12,0 a 3.0003,3.0003 0 0 0 0.166016,-0.0039 c 0,0 1.75783,-0.04844 3.314453,0.513672 0.778311,0.281056 1.409635,0.677003 1.8125,1.158203 C 35.695834,30.149442 36,30.725273 36,32.000273 c 0,1.275 -0.304166,1.850831 -0.707031,2.332031 -0.402865,0.4812 -1.034189,0.877147 -1.8125,1.158203 -1.556623,0.562114 -3.314453,0.513672 -3.314453,0.513672 A 3.0003,3.0003 0 0 0 30,36.000273 l -17,0 a 3.0003,3.0003 0 1 0 0,6 l 17,0 -0.166016,-0.0039 c 0,0 2.74217,0.201558 5.685547,-0.861328 1.471689,-0.531444 3.090365,-1.416747 4.375,-2.951172 C 41.179166,36.649442 42,34.475273 42,32.000273 c 0,-2.475 -0.820834,-4.649169 -2.105469,-6.183594 -1.284635,-1.534425 -2.903311,-2.419728 -4.375,-2.951172 -2.943377,-1.062886 -5.685547,-0.861328 -5.685547,-0.861328 L 30,22.000273 l -12,0 a 3.0003,3.0003 0 0 0 -0.166016,0.0039 c 0,0 -1.75783,0.04844 -3.314453,-0.513672 -0.778311,-0.281056 -1.409635,-0.677003 -1.8125,-1.158203 C 12.304166,19.851104 12,19.275273 12,18.000273 c 0,-1.275 0.304166,-1.850831 0.707031,-2.332031 0.402865,-0.4812 1.034189,-0.877147 1.8125,-1.158203 1.556623,-0.562114 3.314453,-0.513672 3.314453,-0.513672 A 3.0003,3.0003 0 0 0 18,14.000273 l 17,0 a 3.0003,3.0003 0 1 0 0,-6.0000005 l -17,0 z"/>
 <path style="opacity:0.2;fill-rule:evenodd" d="M 23.955078,3.9573037 A 3.0003,3.0003 0 0 0 21,7.0002725 l 0,34.0000005 0,2 a 3.0003,3.0003 0 1 0 6,0 l 0,-2 0,-34.0000005 A 3.0003,3.0003 0 0 0 23.955078,3.9573037 Z"/>
 <path style="fill:none;stroke:#ffc73a;stroke-width:6;stroke-linecap:round;stroke-linejoin:round" d="m 13,38 17,0 c 0,0 9,0.5 9,-7 0,-7.5 -9,-7 -9,-7 l -12,0 c 0,0 -9,0.5 -9,-7 0,-7.5 9,-7 9,-7 l 17,0"/>
 <path style="opacity:0.2;fill:#ffffff" d="M 17.691406 6.9882812 C 16.7822 6.9814158 14.688002 7.0680696 12.480469 7.8652344 C 11.00878 8.3966738 9.3901036 9.2819814 8.1054688 10.816406 C 6.8208337 12.350831 6 14.525 6 17 C 6 17.16922 6.0119711 17.333701 6.0195312 17.5 C 6.1225458 15.23402 6.9086666 13.24592 8.1054688 11.816406 C 9.3901036 10.281981 11.00878 9.3966738 12.480469 8.8652344 C 15.166491 7.8952817 17.58013 7.9780628 18 8 L 35 8 A 3.0003 3.0003 0 0 1 37.998047 10.507812 A 3.0003 3.0003 0 0 0 35 7 L 18.046875 7 C 17.984303 6.9963442 17.918396 6.9899953 17.691406 6.9882812 z M 12.033203 17.5 C 12.020227 17.66173 12 17.808889 12 18 C 12 19.275 12.304166 19.850837 12.707031 20.332031 C 13.109896 20.813231 13.74122 21.209178 14.519531 21.490234 C 16.076154 22.052346 17.833984 22.003906 17.833984 22.003906 A 3.0003 3.0003 0 0 1 18 22 L 29.96875 22 C 30.31854 21.980278 32.785099 21.877801 35.519531 22.865234 C 36.99122 23.396678 38.609896 24.281981 39.894531 25.816406 C 41.091333 27.24592 41.877454 29.23402 41.980469 31.5 C 41.988029 31.333701 42 31.16922 42 31 C 42 28.525 41.179166 26.350831 39.894531 24.816406 C 38.609896 23.281981 36.99122 22.396678 35.519531 21.865234 C 32.760872 20.869052 30.266326 20.981701 29.953125 21 L 18 21 A 3.0003 3.0003 0 0 0 17.833984 21.003906 C 17.833984 21.003906 16.076154 21.052346 14.519531 20.490234 C 13.74122 20.209178 13.109896 19.813231 12.707031 19.332031 C 12.364552 18.922964 12.106795 18.417254 12.033203 17.5 z M 35.966797 31.5 C 35.893205 32.417254 35.635448 32.922959 35.292969 33.332031 C 34.890104 33.813231 34.25878 34.209178 33.480469 34.490234 C 31.923846 35.052348 30.166016 35.003906 30.166016 35.003906 A 3.0003 3.0003 0 0 0 30 35 L 13 35 A 3.0003 3.0003 0 0 0 10.001953 38.492188 A 3.0003 3.0003 0 0 1 13 36 L 30 36 A 3.0003 3.0003 0 0 1 30.166016 36.003906 C 30.166016 36.003906 31.923846 36.052348 33.480469 35.490234 C 34.25878 35.209178 34.890104 34.813231 35.292969 34.332031 C 35.695834 33.850831 36 33.275 36 32 C 36 31.808889 35.979773 31.66173 35.966797 31.5 z"/>
 <path style="fill:none;stroke:#ffc73a;stroke-width:6;stroke-linecap:round;stroke-linejoin:round" d="m 24,6 0,34 0,2"/>
 <path style="opacity:0.2;fill:#ffffff;fill-rule:evenodd" d="M 23.955078 2.9570312 A 3.0003 3.0003 0 0 0 21 6 L 21 7 A 3.0003 3.0003 0 0 1 23.955078 3.9570312 A 3.0003 3.0003 0 0 1 27 7 L 27 6 A 3.0003 3.0003 0 0 0 23.955078 2.9570312 z"/>
</svg>
